src/assets/icons/numbers,fancy,06.svg

<svg width="48" height="48" viewBox="0 0 48 48" fill="none" xmlns="http://www.w3.org/2000/svg">
<path d="M24.3196 39.3977C30.7969 39.4261 35.2145 35.179 35.2003 29.2557C35.2145 23.8011 31.4077 19.8665 26.2514 19.8665C23.0554 19.8665 20.2287 21.4006 18.9219 23.9716H18.723C18.7514 18.304 20.7401 14.7812 24.5327 14.7812C26.7628 14.7812 28.3679 16.0028 28.8366 18.0341H34.902C34.3196 13.2472 30.3423 9.51136 24.5327 9.51136C17.3452 9.51136 12.7287 15.3352 12.7003 25.108C12.6861 35.7614 18.3395 39.3693 24.3196 39.3977ZM24.2912 34.5682C21.4503 34.5682 19.348 32.2812 19.348 29.4403C19.3622 26.6136 21.5071 24.3125 24.3338 24.3125C27.1747 24.3125 29.2486 26.5426 29.2344 29.4261C29.2486 32.3381 27.1321 34.5682 24.2912 34.5682Z" fill="black"/>
</svg>

<svg xmlns="http://www.w3.org/2000/svg" width="48" height="48" fill="none" viewBox="0 0 48 48">
  <path fill="#000" d="M24.32 39.398c6.477.028 10.895-4.219 10.88-10.142.014-5.455-3.792-9.39-8.949-9.39-3.196 0-6.022 1.535-7.33 4.106h-.198c.028-5.668 2.017-9.19 5.81-9.19 2.23 0 3.835 1.22 4.304 3.252h6.065c-.582-4.787-4.56-8.523-10.37-8.523-7.187 0-11.803 5.824-11.832 15.597-.014 10.653 5.64 14.261 11.62 14.29zm-.029-4.83c-2.84 0-4.943-2.287-4.943-5.128.014-2.826 2.16-5.128 4.986-5.128 2.84 0 4.915 2.23 4.9 5.114.015 2.912-2.102 5.142-4.943 5.142z"/>
</svg>
